flaticon/hand-gestures/mouse.svg

<svg xmlns="http://www.w3.org/2000/svg" width="32" height="32" viewBox="0 0 24 24">
    <path d="M 9.140625 8 C 9.820312 8 10.421875 7.441406 10.421875 6.71875 C 10.421875 6 9.820312 5.441406 9.140625 5.441406 C 8.460938 5.441406 7.859375 6.039062 7.859375 6.71875 C 7.859375 7.398438 8.421875 8 9.140625 8 Z M 9.140625 6.199219 C 9.378906 6.199219 9.621094 6.441406 9.621094 6.679688 C 9.621094 6.921875 9.378906 7.160156 9.140625 7.160156 C 8.898438 7.160156 8.660156 6.921875 8.660156 6.679688 C 8.660156 6.441406 8.859375 6.199219 9.140625 6.199219 Z M 9.140625 6.199219"/>
    <path d="M 19.179688 12 C 18.898438 12 18.621094 12.078125 18.378906 12.199219 L 18.378906 12 C 18.378906 11.121094 17.660156 10.398438 16.78125 10.398438 C 16.5 10.398438 16.21875 10.519531 15.980469 10.679688 C 15.914062 9.992188 15.449219 9.441406 14.820312 9.261719 L 14.820312 8.199219 C 14.820312 5.191406 12.519531 2.710938 9.585938 2.425781 C 9.414062 1.492188 8.613281 0.800781 7.621094 0.800781 C 7.179688 0.800781 6.820312 0.441406 6.820312 0 L 6.019531 0 C 6.019531 0.878906 6.738281 1.601562 7.621094 1.601562 C 8.160156 1.601562 8.601562 1.929688 8.757812 2.40625 C 6.015625 2.527344 3.765625 4.558594 3.304688 7.199219 L 3.300781 7.199219 L 3.285156 7.316406 C 3.261719 7.480469 3.242188 7.648438 3.234375 7.816406 C 3.230469 7.839844 3.230469 7.867188 3.226562 7.894531 C 3.226562 7.898438 3.226562 7.90625 3.226562 7.910156 C 3.226562 7.953125 3.222656 7.992188 3.222656 8.03125 C 3.222656 8.054688 3.222656 8.074219 3.222656 8.097656 C 3.222656 8.121094 3.21875 8.140625 3.21875 8.160156 C 3.21875 8.175781 3.21875 8.1875 3.21875 8.199219 L 3.21875 18.199219 C 3.21875 21.398438 5.820312 24 9.019531 24 C 9.972656 24 10.925781 23.75 11.824219 23.25 C 12.371094 23.722656 13.09375 24 13.898438 24 L 16.980469 24 C 18.421875 24 19.78125 22.921875 20.058594 21.601562 C 20.179688 21.121094 20.300781 20.921875 20.339844 20.878906 C 20.660156 20.519531 20.78125 19.800781 20.78125 18.480469 L 20.78125 13.601562 C 20.78125 12.71875 20.058594 12 19.179688 12 Z M 4.023438 8.082031 C 4.742188 8.320312 5.21875 9.28125 5.21875 10.480469 C 5.21875 11.679688 4.738281 12.601562 4.019531 12.878906 L 4.019531 8.320312 C 4.019531 8.28125 4.019531 8.238281 4.019531 8.199219 C 4.019531 8.160156 4.019531 8.121094 4.023438 8.082031 Z M 4.019531 18.199219 L 4.019531 13.71875 C 5.207031 13.480469 6.019531 12.175781 6.019531 10.480469 C 6.019531 8.847656 5.234375 7.5625 4.109375 7.265625 C 4.546875 4.953125 6.578125 3.199219 9.019531 3.199219 C 11.78125 3.199219 14.019531 5.441406 14.019531 8.199219 L 14.019531 9.238281 C 13.945312 9.257812 13.882812 9.277344 13.820312 9.300781 C 13.75 9.324219 13.683594 9.351562 13.621094 9.382812 L 13.621094 8 C 13.621094 7.121094 12.898438 6.398438 12.019531 6.398438 C 12.011719 6.398438 12.007812 6.402344 12 6.402344 C 11.992188 6.402344 11.988281 6.398438 11.980469 6.398438 C 11.101562 6.398438 10.378906 7.121094 10.378906 8 L 10.378906 13.710938 C 10.316406 13.632812 10.246094 13.5625 10.175781 13.492188 C 9.382812 12.6875 8.085938 12.3125 7.058594 12.679688 C 6.859375 12.761719 6.738281 12.839844 6.621094 12.921875 C 6.140625 13.238281 6.140625 13.679688 6.140625 13.839844 C 6.101562 14 6.179688 14.078125 6.578125 14.558594 C 7.101562 15.199219 8.21875 16.480469 8.941406 17.761719 C 8.980469 17.839844 9.859375 19.160156 10.78125 20.160156 L 10.78125 20.921875 C 10.78125 21.570312 10.964844 22.160156 11.289062 22.644531 C 10.609375 23.003906 9.816406 23.199219 9.019531 23.199219 C 6.261719 23.199219 4.019531 20.960938 4.019531 18.199219 Z M 17.019531 23.199219 L 13.941406 23.199219 C 13.316406 23.199219 12.765625 22.976562 12.355469 22.609375 C 12.335938 22.542969 12.304688 22.484375 12.261719 22.441406 C 11.878906 22.058594 11.679688 21.566406 11.660156 21.003906 C 11.917969 21.207031 12.230469 21.375 12.660156 21.441406 C 12.699219 21.441406 12.738281 21.441406 12.738281 21.441406 C 12.941406 21.441406 13.101562 21.28125 13.101562 21.121094 C 13.140625 20.921875 12.980469 20.71875 12.78125 20.679688 C 12.300781 20.601562 12.019531 20.28125 11.699219 19.921875 C 11.679688 19.90625 11.660156 19.890625 11.640625 19.875 C 11.621094 19.816406 11.589844 19.769531 11.539062 19.71875 C 10.621094 18.761719 9.699219 17.359375 9.699219 17.359375 C 9.128906 16.3125 8.28125 15.242188 7.675781 14.523438 C 7.527344 14.335938 7.398438 14.171875 7.300781 14.039062 C 7.21875 13.960938 7.140625 13.839844 7.058594 13.761719 C 7.058594 13.71875 7.101562 13.679688 7.179688 13.601562 C 7.261719 13.519531 7.339844 13.480469 7.460938 13.441406 C 7.578125 13.398438 7.707031 13.367188 7.84375 13.355469 C 8.582031 13.3125 9.515625 13.714844 9.980469 14.480469 L 10.441406 15.292969 C 10.445312 15.316406 10.453125 15.339844 10.460938 15.359375 L 10.859375 16.160156 C 10.941406 16.320312 11.339844 16.398438 11.378906 16.320312 C 11.539062 16.238281 11.621094 16 11.539062 15.800781 L 11.257812 15.238281 C 11.257812 15.226562 11.261719 15.210938 11.261719 15.199219 L 11.261719 8 C 11.261719 7.566406 11.609375 7.210938 12.039062 7.199219 C 12.472656 7.210938 12.820312 7.566406 12.820312 8 L 12.820312 10.800781 C 12.820312 10.871094 12.835938 10.933594 12.859375 10.988281 L 12.859375 15.601562 C 12.859375 15.839844 13.019531 16 13.261719 16 C 13.5 16 13.660156 15.839844 13.660156 15.601562 L 13.660156 10.800781 C 13.660156 10.359375 14.019531 10 14.460938 10 C 14.898438 10 15.261719 10.320312 15.261719 10.800781 L 15.261719 15.199219 C 15.261719 15.441406 15.417969 15.601562 15.660156 15.601562 C 15.898438 15.601562 16.058594 15.441406 16.058594 15.199219 L 16.058594 12 C 16.058594 11.71875 16.417969 11.199219 16.859375 11.199219 C 17.300781 11.199219 17.660156 11.558594 17.660156 12 L 17.660156 15.199219 C 17.660156 15.441406 17.820312 15.601562 18.058594 15.601562 C 18.300781 15.601562 18.460938 15.441406 18.460938 15.199219 L 18.460938 13.601562 C 18.460938 13.160156 18.820312 12.800781 19.261719 12.800781 C 19.699219 12.800781 20.058594 13.160156 20.058594 13.601562 L 20.058594 18.480469 C 20.058594 19.464844 19.976562 19.945312 19.898438 20.179688 C 19.851562 20.207031 19.8125 20.238281 19.78125 20.28125 C 19.578125 20.519531 19.378906 20.679688 18.699219 20.839844 C 18.5 20.878906 18.378906 21.121094 18.421875 21.320312 C 18.5 21.480469 18.660156 21.601562 18.820312 21.601562 C 18.835938 21.601562 19.0625 21.535156 19.34375 21.425781 C 19.34375 21.429688 19.339844 21.433594 19.339844 21.441406 C 19.101562 22.398438 18.058594 23.199219 17.019531 23.199219 Z M 17.019531 23.199219"/>
</svg>

<svg xmlns="http://www.w3.org/2000/svg" width="32" height="32" viewBox="0 0 24 24">
    <path d="M9.14 8a1.29 1.29 0 0 0 1.282-1.281C10.422 6 9.82 5.44 9.14 5.44c-.68 0-1.282.598-1.282 1.278S8.422 8 9.141 8zm0-1.8c.239 0 .481.241.481.48 0 .242-.242.48-.48.48a.514.514 0 0 1-.48-.48c0-.239.198-.48.48-.48zm0 0"/>
    <path d="M19.18 12c-.282 0-.559.078-.801.2V12c0-.879-.719-1.602-1.598-1.602-.281 0-.562.122-.8.282a1.62 1.62 0 0 0-1.16-1.418V8.199c0-3.008-2.301-5.488-5.235-5.773A1.977 1.977 0 0 0 7.62.8c-.441 0-.8-.36-.8-.801H6.02c0 .879.718 1.602 1.601 1.602.54 0 .98.328 1.137.804A5.807 5.807 0 0 0 3.305 7.2H3.3l-.016.117a5.285 5.285 0 0 0-.05.5c-.005.024-.005.051-.008.079v.015c0 .043-.004.082-.004.121v.067c0 .023-.004.043-.004.062V18.2c0 3.198 2.601 5.8 5.8 5.8.954 0 1.907-.25 2.805-.75.547.473 1.27.75 2.074.75h3.082c1.442 0 2.801-1.078 3.079-2.398.12-.48.242-.68.28-.723.321-.36.442-1.078.442-2.399v-4.878c0-.883-.722-1.602-1.601-1.602zM4.023 8.082c.72.238 1.196 1.2 1.196 2.398 0 1.2-.48 2.122-1.2 2.399V8.32 8.2c0-.04 0-.079.004-.118zM4.02 18.199v-4.48c1.187-.239 2-1.543 2-3.239 0-1.632-.786-2.918-1.91-3.214a5.002 5.002 0 0 1 4.91-4.067c2.761 0 5 2.242 5 5v1.04c-.075.019-.137.038-.2.062-.07.023-.136.05-.199.082V8c0-.879-.723-1.602-1.601-1.602-.008 0-.012.004-.02.004s-.012-.004-.02-.004c-.878 0-1.601.723-1.601 1.602v5.71a2.692 2.692 0 0 0-.203-.218c-.793-.805-2.09-1.18-3.117-.812-.2.082-.32.16-.438.242-.48.316-.48.758-.48.918-.04.16.039.238.437.719.524.64 1.64 1.921 2.363 3.203.04.078.918 1.398 1.84 2.398v.762c0 .648.184 1.238.508 1.723-.68.359-1.473.554-2.27.554-2.757 0-5-2.238-5-5zm13 5H13.94a2.354 2.354 0 0 1-1.586-.59.392.392 0 0 0-.093-.168c-.383-.382-.582-.875-.602-1.437.258.203.57.371 1 .437h.078c.203 0 .364-.16.364-.32.039-.2-.122-.402-.32-.441-.481-.078-.762-.399-1.083-.758l-.058-.047a.385.385 0 0 0-.102-.156c-.918-.957-1.84-2.36-1.84-2.36-.57-1.047-1.418-2.117-2.023-2.836a18.585 18.585 0 0 1-.375-.484c-.082-.078-.16-.2-.242-.277 0-.043.043-.082.12-.16a.626.626 0 0 1 .282-.16c.117-.044.246-.075.383-.087.738-.043 1.672.36 2.136 1.125l.461.813a.33.33 0 0 0 .02.066l.398.801c.082.16.48.238.52.16.16-.082.242-.32.16-.52l-.281-.562c0-.011.004-.027.004-.039V8c0-.434.347-.79.777-.8a.803.803 0 0 1 .781.8v2.8c0 .071.016.134.04.188v4.614c0 .238.16.398.402.398.238 0 .398-.16.398-.398V10.8c0-.442.36-.801.8-.801.438 0 .802.32.802.8v4.4c0 .241.156.402.398.402.238 0 .399-.16.399-.403V12c0-.281.359-.8.8-.8.442 0 .801.359.801.8v3.2c0 .241.16.402.399.402.242 0 .402-.16.402-.403v-1.597c0-.442.36-.801.8-.801.438 0 .798.36.798.8v4.88c0 .984-.082 1.464-.16 1.699a.368.368 0 0 0-.118.101c-.203.239-.402.399-1.082.559-.199.039-.32.281-.277.48.078.16.238.282.398.282.016 0 .242-.067.524-.176 0 .004-.004.008-.004.015-.238.957-1.281 1.758-2.32 1.758zm0 0"/>
</svg>
